X:12
T:Slane                                                                                             
M:3/4                                                                                               
K:G                                                                                                 
G2 G2 AG | E2 D2 DE | G2 G2 A2 | B4 dB |\                                                           
A2 A2 A2 | A2 B2 d2 | e2 d2 B2 | d4 Bd |                                                            
e2 ef gf | e2 d2 B2 | d2 G2 F2 | E4 D2 |\                                                           
G2 B2 d2 | ed B2 GB | A2 G2 G2 | G4 z2 ||
